X: 6
T: Tam Lin
R: reel
M: 4/4
L: 1/8
K: Dmin
DE|:FEDC DEFD|B,2 DB, FB,DB,|C2 EC GCEC|FAFE FDDE||FEDC DEFD|B,2 DB, FB,DB,|C2 EC GCEC|FAFE FD D2:||:dA A/A/A FADA|dA A/A/A FADA|cG G/G/G cGcd|edeg fed^c||dA A/A/A FADA|dA A/A/A FADA,|B,A,B,C DCDE|FDEC D4:||:fd d/d/d AGFE|DEFG A=Bcd|ec c/c/c ecge|ec c/c/c agfe||fd d/d/d Adfa|fdAG FEDA,|B,A,B,C DCDE|FDEC D4:|


Tune 248	Setting 20858

